src/assets/outline/Headphone.svg

<svg width="24" height="24" viewBox="0 0 24 24"  xmlns="http://www.w3.org/2000/svg">
<path d="M5.5702 22.6998C3.2302 22.6998 1.2502 20.7198 1.2502 18.3798V12.2198C1.2002 9.2998 2.2802 6.5498 4.3002 4.4898C6.3202 2.4398 9.0302 1.2998 11.9502 1.2998C17.9102 1.2998 22.7502 6.14981 22.7502 12.0998V18.2598C22.7502 20.6398 20.8102 22.5798 18.4302 22.5798C16.0902 22.5798 14.1102 20.5998 14.1102 18.2598V15.4498C14.1102 13.9998 15.2502 12.8598 16.7002 12.8598C18.1502 12.8598 19.2902 13.9998 19.2902 15.4498V18.4798C19.2902 18.8898 18.9502 19.2298 18.5402 19.2298C18.1302 19.2298 17.7902 18.8898 17.7902 18.4798V15.4498C17.7902 14.7698 17.2402 14.3598 16.7002 14.3598C16.0202 14.3598 15.6102 14.9098 15.6102 15.4498V18.2598C15.6102 19.7898 16.9002 21.0798 18.4302 21.0798C19.9602 21.0798 21.2502 19.7898 21.2502 18.2598V12.0998C21.2502 6.9698 17.0802 2.7998 11.9502 2.7998C9.4402 2.7998 7.1102 3.7698 5.3702 5.5398C3.6302 7.3098 2.7002 9.6798 2.7502 12.1998V18.3798C2.7502 19.9098 4.0402 21.1998 5.5702 21.1998C7.1002 21.1998 8.3902 19.9098 8.3902 18.3798V15.5698C8.3902 14.8898 7.8402 14.4798 7.3002 14.4798C6.6202 14.4798 6.2102 15.0298 6.2102 15.5698V18.4898C6.2102 18.8998 5.8702 19.2398 5.4602 19.2398C5.0502 19.2398 4.7102 18.8998 4.7102 18.4898V15.5698C4.7102 14.1198 5.8502 12.9798 7.3002 12.9798C8.7502 12.9798 9.8902 14.1198 9.8902 15.5698V18.3798C9.8902 20.7198 7.9102 22.6998 5.5702 22.6998Z" />
</svg>

<?xml version="1.0" encoding="UTF-8"?>
<svg width="24" height="24" viewBox="0 0 24 24" xmlns="http://www.w3.org/2000/svg">
 <path d="m5.5702 22.7c-2.34 0-4.32-1.98-4.32-4.32v-6.16c-0.05-2.92 1.03-5.67 3.05-7.73 2.02-2.05 4.73-3.19 7.65-3.19 5.96 0 10.8 4.85 10.8 10.8v6.16c0 2.38-1.94 4.32-4.32 4.32-2.34 0-4.32-1.98-4.32-4.32v-2.81c0-1.45 1.14-2.59 2.59-2.59s2.59 1.14 2.59 2.59v3.03c0 0.41-0.34 0.75-0.75 0.75s-0.75-0.34-0.75-0.75v-3.03c0-0.68-0.55-1.09-1.09-1.09-0.68 0-1.09 0.55-1.09 1.09v2.81c0 1.53 1.29 2.82 2.82 2.82s2.82-1.29 2.82-2.82v-6.16c0-5.13-4.17-9.3-9.3-9.3-2.51 0-4.84 0.97-6.58 2.74s-2.67 4.14-2.62 6.66v6.18c0 1.53 1.29 2.82 2.82 2.82s2.82-1.29 2.82-2.82v-2.81c0-0.68-0.55-1.09-1.09-1.09-0.68 0-1.09 0.55-1.09 1.09v2.92c0 0.41-0.34 0.75-0.75 0.75s-0.75-0.34-0.75-0.75v-2.92c0-1.45 1.14-2.59 2.59-2.59s2.59 1.14 2.59 2.59v2.81c0 2.34-1.98 4.32-4.32 4.32z"/>
</svg>
